cached_logos/datmo.svg

<svg id="Layer_1" data-name="Layer 1" xmlns="http://www.w3.org/2000/svg" viewBox="-2.5094800000000532 109.19065999999998 676 171.6"><defs><style>.cls-1{fill:#3f93eb;}.cls-2{fill:#505050;}</style></defs><title>datmo</title><path id="Shape" class="cls-1" d="M132.66849,274.56922H103.51687V262.4601c-3.1394,3.81213-14.8,15.02429-34.75769,15.02429-33.63648,0-57.40626-25.33947-57.40626-61.44263,0-36.32739,21.97583-61.66688,55.61231-61.66688,20.18189,0,31.84253,11.21216,34.7577,15.24854v-57.182h30.94556ZM72.57131,181.73255c-17.93945,0-30.04858,14.12732-30.04858,34.53345,0,20.85462,12.55761,33.86072,30.04858,33.86072,18.83643,0,30.04859-15.24853,30.04859-33.86072C102.6199,194.29017,89.61379,181.73255,72.57131,181.73255Z"/><path class="cls-1" d="M195.68083,199.44776c11.88489,0,21.07885,3.5879,25.33948,6.50305v-7.62426c0-10.31519-7.62427-17.26673-21.30311-17.26673-11.66064,0-22.42432,3.81214-31.16981,8.297L156.88676,168.278c10.53942-7.17578,28.25464-13.90308,46.19409-13.90308,37.67285,0,48.885,19.7334,48.885,45.96985v74.22449H224.6082L222.59,266.945c-6.05457,6.50306-15.02429,10.53943-28.47888,10.53943-23.76978,0-43.95168-14.5758-43.95168-39.24256C150.15945,215.14479,168.32315,199.44776,195.68083,199.44776Zm5.83032,54.04261c11.66064,0,20.18189-6.27881,20.18189-16.14551,0-10.31518-8.52125-16.36975-20.40614-16.36975s-20.18189,6.7273-20.18189,16.36975S189.8505,253.49037,201.51115,253.49037Z"/><path class="cls-1" d="M277.75383,132.62329h30.49709V157.29h21.9758v25.11524h-21.9758v45.29713c0,17.491,5.38181,21.07886,17.2667,21.07886a50.7544,50.7544,0,0,0,5.60609-.22425v26.4607a63.09905,63.09905,0,0,1-13.23035,1.12122c-28.03041,0-40.36377-15.697-40.36377-47.53956v-46.1941H265.19621V157.29h12.55762Z"/><path class="cls-2" d="M517.02131,274.56922H486.07575V204.38111c0-13.90307-6.95155-22.20007-18.38793-22.20007-11.21218,0-19.06068,8.297-19.06068,22.42432v69.96386H417.68157V203.2599c0-13.23035-6.72727-21.07886-18.16369-21.07886-10.98793,0-19.06067,8.297-19.06067,22.20007v70.18811H349.51164V157.29h30.27285v13.67884c4.26059-8.07276,14.57578-16.594,30.49706-16.594,15.02429,0,26.01223,6.7273,32.06679,17.491,6.95151-10.76367,19.06064-17.491,34.75768-17.491,26.68494,0,39.91529,17.71522,39.91529,42.83045Z"/><path class="cls-2" d="M596.8519,154.37488c35.87891,0,63.23656,26.4607,63.23656,61.89112s-26.4607,61.21839-63.23656,61.21839c-36.55165,0-63.01236-25.788-63.01236-61.21839C533.83954,180.61133,561.19723,154.37488,596.8519,154.37488Zm0,95.75184c18.61217,0,32.291-13.90307,32.291-33.86072s-13.67886-34.53345-32.291-34.53345-32.06679,14.35157-32.06679,34.53345C564.78511,236.22365,578.46394,250.12672,596.8519,250.12672Z"/></svg>

<svg xmlns="http://www.w3.org/2000/svg" viewBox="-1.98 99.02 674.96 190.96"><title>Datmo logo</title><defs><style>.cls-1{fill:#3f93eb}</style></defs><path id="Shape" d="M132.668 274.57h-29.151v-12.11c-3.14 3.812-14.8 15.024-34.758 15.024-33.636 0-57.406-25.34-57.406-61.442 0-36.328 21.976-61.667 55.612-61.667 20.182 0 31.843 11.212 34.758 15.248v-57.182h30.945zm-60.097-92.837c-17.94 0-30.048 14.127-30.048 34.533 0 20.855 12.557 33.86 30.048 33.86 18.837 0 30.049-15.248 30.049-33.86 0-21.976-13.006-34.533-30.049-34.533z" class="cls-1"/><path d="M195.68 199.448c11.886 0 21.08 3.588 25.34 6.503v-7.624c0-10.316-7.624-17.267-21.303-17.267-11.66 0-22.424 3.812-31.17 8.297l-11.66-21.079c10.54-7.176 28.254-13.903 46.194-13.903 37.673 0 48.885 19.733 48.885 45.97v74.224h-27.358l-2.018-7.624c-6.055 6.503-15.024 10.54-28.479 10.54-23.77 0-43.952-14.576-43.952-39.243 0-23.097 18.164-38.794 45.522-38.794zm5.831 54.042c11.66 0 20.182-6.278 20.182-16.145 0-10.315-8.521-16.37-20.406-16.37s-20.182 6.727-20.182 16.37 8.746 16.145 20.406 16.145zm76.243-120.867h30.497v24.667h21.976v25.115H308.25v45.297c0 17.491 5.382 21.08 17.267 21.08a50.754 50.754 0 0 0 5.606-.225v26.46a63.099 63.099 0 0 1-13.23 1.122c-28.031 0-40.364-15.697-40.364-47.54v-46.194h-12.334V157.29h12.558z" class="cls-1"/><path fill="#505050" d="M517.021 274.57h-30.945v-70.19c0-13.903-6.952-22.2-18.388-22.2-11.212 0-19.06 8.297-19.06 22.424v69.964h-30.946v-71.31c0-13.23-6.728-21.078-18.164-21.078-10.988 0-19.06 8.297-19.06 22.2v70.188h-30.946V157.29h30.272v13.679c4.261-8.073 14.576-16.594 30.498-16.594 15.024 0 26.012 6.727 32.066 17.49 6.952-10.763 19.061-17.49 34.758-17.49 26.685 0 39.915 17.715 39.915 42.83zm79.831-120.195c35.879 0 63.236 26.46 63.236 61.891s-26.46 61.218-63.236 61.218c-36.552 0-63.012-25.788-63.012-61.218 0-35.655 27.357-61.891 63.012-61.891zm0 95.752c18.612 0 32.29-13.903 32.29-33.861s-13.678-34.533-32.29-34.533-32.067 14.351-32.067 34.533c0 19.958 13.679 33.86 32.067 33.86z"/></svg>
